src/assets/images/ic_audio_pause.svg

<?xml version="1.0" encoding="UTF-8"?>
<svg width="30px" height="30px" viewBox="0 0 38 38" version="1.1" xmlns="http://www.w3.org/2000/svg" xmlns:xlink="http://www.w3.org/1999/xlink">
    <g id="Conversation" stroke="none" stroke-width="1" fill="none" fill-rule="evenodd">
        <g id="" transform="translate(-257.000000, -548.000000)">
            <g id="" transform="translate(257.000000, 548.000000)">
                <circle id="Oval" fill="#EFEFF4" cx="19" cy="19" r="19"></circle>
                <path d="M17.4107143,12 C17.7361678,12 18,12.2638322 18,12.5892857 L18,25.4107143 C18,25.7361678 17.7361678,26 17.4107143,26 L14.5892857,26 C14.2638322,26 14,25.7361678 14,25.4107143 L14,12.5892857 C14,12.2638322 14.2638322,12 14.5892857,12 L17.4107143,12 Z M23.4107143,12 C23.7361678,12 24,12.2638322 24,12.5892857 L24,25.4107143 C24,25.7361678 23.7361678,26 23.4107143,26 L20.5892857,26 C20.2638322,26 20,25.7361678 20,25.4107143 L20,12.5892857 C20,12.2638322 20.2638322,12 20.5892857,12 L23.4107143,12 Z" fill="#4b7ed2"></path>
            </g>
        </g>
    </g>
</svg>

<svg width="30" height="30" viewBox="0 0 38 38" xmlns="http://www.w3.org/2000/svg"><g fill="none" fill-rule="evenodd"><circle fill="#EFEFF4" cx="19" cy="19" r="19"/><path d="M17.41 12a.59.59 0 01.59.59v12.82a.59.59 0 01-.59.59h-2.82a.59.59 0 01-.59-.59V12.59a.59.59 0 01.59-.59h2.82zm6 0a.59.59 0 01.59.59v12.82a.59.59 0 01-.59.59h-2.82a.59.59 0 01-.59-.59V12.59a.59.59 0 01.59-.59h2.82z" fill="#4b7ed2"/></g></svg>
